X: 10096
T: SASHA'S JIG
C: Bob McQuillen 16 April 93
B: Bob's Note Book 10 #96
%R: jig
Z: 2020 John Chambers <jc:trillian.mit.edu>
M: 6/8
L: 1/8
K: G
E \
| DGG GBG | DGG G2E | DGB dBd | edB d2d |\
| geg dBA | BAG E2G | DEG AGA | BGG G2 :|
|: d \
| gab bag | efg d2d | gbg age | dBG A2d |\
| egb a2g | efg d2e | ded BGB | AGG G2 :|
%%begintext align
%% Sasha Hall
%% is Widde and Jonathan Hall's sweet daughter
%% and she's awfully nice to me, so I thought
%% I ought to be nice to her. I know you agree
%% with me! (P.S. - Widde + Jonathan started the
%% Folkway, just in case you didn't know that.)
%%endtext

%%sep 1 1 500

%%sep 1 1 500

